app/assets/images/sidebar/wallet-ic.svg

<?xml version="1.0" encoding="UTF-8"?>
<svg width="46px" height="41px" viewBox="0 0 46 41" version="1.1" xmlns="http://www.w3.org/2000/svg" xmlns:xlink="http://www.w3.org/1999/xlink">
    <!-- Generator: sketchtool 40.3 (33839) - http://www.bohemiancoding.com/sketch -->
    <title>7094F201-7B57-4245-8559-0C826E458F2C</title>
    <desc>Created with sketchtool.</desc>
    <defs></defs>
    <g id="Symbols" stroke="none" stroke-width="1" fill="none" fill-rule="evenodd">
        <g id="wallets-menu" transform="translate(-61.000000, -231.000000)">
            <g id="menu">
                <g id="main-menu" transform="translate(40.000000, 208.000000)">
                    <g id="wallet-ic">
                        <circle id="Oval" cx="44" cy="44" r="44"></circle>
                        <path d="M63.0009996,31.9953954 L63.0009996,29.9951076 C63.0009996,27.7857897 61.2099996,25.994532 59.0009997,25.994532 L55.3919997,25.994532 L54.5379997,23.6491946 C54.3519997,23.1371209 53.7839997,22.8730829 53.2699997,23.0601098 L45.1719998,25.994532 L25.002,25.994532 L25,25.994532 C22.791,25.994532 21,27.7857897 21,29.9951076 L21,58.9992805 C21,61.7606778 23.238,64 26,64 L61.9999996,64 C64.7619996,64 66.9999996,61.7606778 66.9999996,58.9992805 L66.9999996,35.9959709 C67.0009996,33.7866531 65.2099996,31.9953954 63.0009996,31.9953954 L63.0009996,31.9953954 Z M59.0009997,27.9948198 C60.1059996,27.9948198 61.0009996,28.8909487 61.0009996,29.9951076 L61.0009996,31.9953954 L57.5729997,31.9953954 L56.1179997,27.9948198 L59.0009997,27.9948198 L59.0009997,27.9948198 Z M45.4439998,27.9948198 L45.4539998,27.9948198 L50.9679997,25.994532 L50.9659997,25.994532 L53.0169997,25.2514251 L54.0789997,28.1758458 L55.4679997,31.9953954 L34.4059999,31.9953954 L45.4439998,27.9948198 L45.4439998,27.9948198 Z M25.001,27.9948198 L39.6509998,27.9948198 L28.6709999,31.9743923 C28.6569999,31.9793931 28.6499999,31.9903946 28.6359999,31.9953954 L25.001,31.9953954 C23.897,31.9953954 23.001,31.0992664 23.001,29.9951076 C23.001,28.8909487 23.897,27.9948198 25.001,27.9948198 L25.001,27.9948198 Z M65.0009996,49.9979855 L61.0009996,49.9979855 C59.8969996,49.9979855 59.0009997,49.1018565 59.0009997,47.9976977 C59.0009997,46.8935388 59.8969996,45.9974099 61.0009996,45.9974099 L65.0009996,45.9974099 L65.0009996,49.9979855 L65.0009996,49.9979855 Z M65.0009996,43.9971221 L61.0009996,43.9971221 C58.7919997,43.9971221 57.0009997,45.7883798 57.0009997,47.9976977 C57.0009997,50.2070155 58.7919997,51.9982733 61.0009996,51.9982733 L65.0009996,51.9982733 L65.0009996,58.9992805 C65.0009996,60.656519 63.6589996,61.9997122 62.0009996,61.9997122 L26.001,61.9997122 C24.345,61.9997122 23.001,60.656519 23.001,58.9992805 L23.001,33.4406033 C23.591,33.7836526 24.269,33.9956832 25.001,33.9956832 L63.0009996,33.9956832 C64.1059996,33.9956832 65.0009996,34.8918121 65.0009996,35.9959709 L65.0009996,43.9971221 L65.0009996,43.9971221 Z M61.0009996,48.9978416 L63.0009996,48.9978416 L63.0009996,46.9975538 L61.0009996,46.9975538 L61.0009996,48.9978416 L61.0009996,48.9978416 Z" fill="#FAFBFC"></path>
                    </g>
                </g>
            </g>
        </g>
    </g>
</svg>

<svg xmlns="http://www.w3.org/2000/svg" width="46" height="41" viewBox="0 0 46 41">
    <g fill="none" fill-rule="evenodd" transform="translate(-21 -23)">
        <circle cx="44" cy="44" r="44"/>
        <path fill="#5E6066" d="M63.001 31.995v-2a4 4 0 0 0-4-4h-3.609l-.854-2.346a.989.989 0 0 0-1.268-.589l-8.098 2.935H25a4 4 0 0 0-4 4V59A5 5 0 0 0 26 64h36a5 5 0 0 0 5-5V35.995c.001-2.21-1.79-4-3.999-4zm-4-4a2 2 0 0 1 2 2v2h-3.428l-1.455-4h2.883zm-13.557 0h.01l5.514-2h-.002l2.051-.744 1.062 2.925 1.389 3.82H34.406l11.038-4.001zm-20.443 0h14.65l-10.98 3.98c-.014.004-.021.015-.035.02h-3.635a2 2 0 0 1 0-4zm40 22.003h-4a2 2 0 0 1 0-4h4v4zm0-6h-4a4 4 0 0 0 0 8h4V59a3 3 0 0 1-3 3h-36a3 3 0 0 1-3-3V33.441c.59.343 1.268.555 2 .555h38a2 2 0 0 1 2 2v8.001zm-4 5h2v-2h-2v2z"/>
    </g>
</svg>
